dist/img/phone-icon.svg

<svg width="30" height="30" viewBox="0 0 30 30" fill="none" xmlns="http://www.w3.org/2000/svg">
<g clip-path="url(#clip0)">
<path d="M20.1562 9.03906L17.9531 8.54688C17.4375 8.42969 16.9219 8.6875 16.7344 9.15625L15.7031 11.5469C15.5156 11.9688 15.6328 12.4844 16.0078 12.7891L16.9453 13.5625C16.2891 14.7812 15.2578 15.7891 14.0391 16.4688L13.2656 15.5312C12.9609 15.1562 12.4453 15.0391 12.0234 15.2266L9.63281 16.2344C9.16406 16.4453 8.90625 16.9609 9.02344 17.4766L9.51562 19.6797C9.63281 20.1719 10.0781 20.5 10.5703 20.5C16.3125 20.5 21 15.8594 21 10.0938C21 9.60156 20.6484 9.15625 20.1562 9.03906ZM10.6172 19.375L10.125 17.2656L12.4219 16.2812L13.7344 17.875C16.0547 16.7734 17.25 15.5781 18.3516 13.2578L16.7578 11.9453L17.7422 9.64844L19.875 10.1406C19.8516 15.2266 15.7031 19.3516 10.6172 19.375Z" fill="black"/>
<circle cx="15" cy="15" r="15" stroke="#222222" stroke-width="0.5"/>
</g>
<defs>
<clipPath id="clip0">
<rect width="30" height="30" fill="white"/>
</clipPath>
</defs>
</svg>

<svg width="30" height="30" fill="none" xmlns="http://www.w3.org/2000/svg"><g clip-path="url(#clip0)"><path d="M20.156 9.04l-2.203-.493c-.515-.117-1.031.14-1.219.61l-1.03 2.39c-.188.422-.071.937.304 1.242l.937.774c-.656 1.218-1.687 2.226-2.906 2.906l-.773-.938a1.057 1.057 0 00-1.243-.304l-2.39 1.007a1.09 1.09 0 00-.61 1.243l.493 2.203c.117.492.562.82 1.054.82C16.312 20.5 21 15.86 21 10.094a1.1 1.1 0 00-.844-1.055zm-9.539 10.335l-.492-2.11 2.297-.984 1.312 1.594c2.32-1.102 3.516-2.297 4.618-4.617l-1.594-1.313.984-2.297 2.133.493c-.023 5.086-4.172 9.21-9.258 9.234z" fill="#000"/><circle cx="15" cy="15" r="15" stroke="#222" stroke-width=".5"/></g><defs><clipPath id="clip0"><path fill="#fff" d="M0 0h30v30H0z"/></clipPath></defs></svg>
